X: 4
T: Captain Campbell
R: strathspey
M: 4/4
L: 1/8
K: Amin
|: E>AA>B c2 B>A | G>Bd>c B<GG>D |
E>AA>B c>Bc>e | (3dcB g>B B<A A2 :|
A>aa>g a>bg>e | d>Bg>d B>AG>B |
[1 A>aa>g a>bg>e | dBgB B<AA>G :|
[2 A>^GA>B c>Bc>d | (3efg d>g B<A A2 ||


Tune 1557	Setting 1557

